groups/amino_sidechains/selenocysteine.svg

<svg height="256" viewBox="0 0 256 256" width="256" xmlns="http://www.w3.org/2000/svg"><path d="m0 0h256v256h-256z" fill="#fff"/><g fill="none" stroke-width="2"><path d="m217.4 130.5-68.3-39.5" stroke="#000"/><path d="m149.1 91-56.4 32.5" stroke="#000"/><path d="m152.5 93-3.4-2-2.8 1.6" stroke="#000" stroke-miterlimit="10"/><path d="m237.111 96.362c-2.559-1.48-4.533 1.931-1.974 3.412 2.559 1.48.585 4.892-1.974 3.412-2.559-1.481-4.533 1.931-1.974 3.412 2.559 1.48.585 4.892-1.974 3.412-2.559-1.481-4.533 1.931-1.974 3.412 2.559 1.48.585 4.892-1.974 3.411-2.559-1.48-4.533 1.932-1.974 3.412 2.559 1.481.585 4.893-1.974 3.412-2.559-1.48-4.533 1.932-1.974 3.412 2.559 1.481.585 4.892-1.974 3.412-2.559-1.481-4.533 1.931-1.974 3.412 2.559 1.48.585 4.892-1.974 3.412-2.559-1.481-4.533 1.931-1.974 3.412 2.559 1.48.585 4.892-1.974 3.412-2.559-1.481-4.533 1.931-1.974 3.411 2.559 1.481.585 4.893-1.974 3.412-2.559-1.48-4.533 1.932-1.974 3.412 2.559 1.481.585 4.893-1.974 3.412-2.559-1.48-4.533 1.931-1.974 3.412 2.559 1.48.585 4.892-1.974 3.412" stroke="#7f7f7f"/></g><text font-family="sans-serif" font-size="40" x="18.5" y="150.4">H</text><text font-family="sans-serif" font-size="40" x="46.1" y="150.4">S</text><text font-family="sans-serif" font-size="40" x="71.6" y="150.4">e</text></svg>

<?xml version='1.0' encoding='iso-8859-1'?>
<svg version='1.1' baseProfile='full'
              xmlns='http://www.w3.org/2000/svg'
                      xmlns:rdkit='http://www.rdkit.org/xml'
                      xmlns:xlink='http://www.w3.org/1999/xlink'
                  xml:space='preserve'
width='256px' height='256px' viewBox='0 0 256 256'>
<!-- END OF HEADER -->
<rect style='opacity:1.0;fill:#FFFFFF;stroke:none' width='256.0' height='256.0' x='0.0' y='0.0'> </rect>
<path class='bond-0 atom-0 atom-1' d='M 217.4,130.5 L 149.1,91.0' style='fill:none;fill-rule:evenodd;stroke:#000000;stroke-width:2.0px;stroke-linecap:butt;stroke-linejoin:miter;stroke-opacity:1' />
<path class='bond-1 atom-1 atom-2' d='M 149.1,91.0 L 92.7,123.5' style='fill:none;fill-rule:evenodd;stroke:#000000;stroke-width:2.0px;stroke-linecap:butt;stroke-linejoin:miter;stroke-opacity:1' />
<path d='M 152.5,93.0 L 149.1,91.0 L 146.3,92.6' style='fill:none;stroke:#000000;stroke-width:2.0px;stroke-linecap:butt;stroke-linejoin:miter;stroke-miterlimit:10;stroke-opacity:1;' />
<path class='atom-1' d='M237.111,96.3621 C234.552,94.8815 232.578,98.2934 235.137,99.774 C237.696,101.254 235.722,104.666 233.163,103.186 C230.604,101.705 228.63,105.117 231.189,106.598 C233.748,108.078 231.774,111.49 229.215,110.01 C226.656,108.529 224.682,111.941 227.241,113.422 C229.8,114.902 227.826,118.314 225.267,116.833 C222.708,115.353 220.734,118.765 223.293,120.245 C225.852,121.726 223.878,125.138 221.319,123.657 C218.76,122.177 216.786,125.589 219.345,127.069 C221.904,128.55 219.93,131.961 217.371,130.481 C214.812,129 212.838,132.412 215.397,133.893 C217.956,135.373 215.982,138.785 213.423,137.305 C210.864,135.824 208.89,139.236 211.449,140.717 C214.008,142.197 212.034,145.609 209.475,144.129 C206.916,142.648 204.942,146.06 207.501,147.54 C210.06,149.021 208.086,152.433 205.527,150.952 C202.968,149.472 200.994,152.884 203.553,154.364 C206.112,155.845 204.138,159.257 201.579,157.776 C199.02,156.296 197.046,159.707 199.605,161.188 C202.164,162.668 200.19,166.08 197.631,164.6' style='fill:none;stroke:#7F7F7F;stroke-width:2.0px;stroke-linecap:butt;stroke-linejoin:miter;stroke-opacity:1' />
<text x='18.5' y='150.4' class='atom-2' style='font-size:40px;font-style:normal;font-weight:normal;fill-opacity:1;stroke:none;font-family:sans-serif;text-anchor:start;fill:#000000' >H</text>
<text x='46.1' y='150.4' class='atom-2' style='font-size:40px;font-style:normal;font-weight:normal;fill-opacity:1;stroke:none;font-family:sans-serif;text-anchor:start;fill:#000000' >S</text>
<text x='71.6' y='150.4' class='atom-2' style='font-size:40px;font-style:normal;font-weight:normal;fill-opacity:1;stroke:none;font-family:sans-serif;text-anchor:start;fill:#000000' >e</text>
</svg>
